X: 22490
T: Lady Connecticut
R: reel
M: 4/4
K: Dminor
|:dcAcd3e|f3e fedc|Addc ded=B|cAGF E=Bc^c|
dcAcd3e|f3g fedc|Add=B cAGF|ECGF EDFA:|
|:d3=B c3=B|Ad3cg3|d3=B cAGF|ECGF EDFA|
d3e ce =Bd|Ad3cg3|afge fdec|d=BAG FDD2:|
|:FDEF GCEG|A3B Afec|dB3ec3|Affe fgfe|
d3e ce =Bd|Ad3cg3|afge fdec|d=BAG FDD2:|

